src/apps/scalable/vroid-studio.svg

<svg id="svg71" width="64" height="64" version="1.1" viewBox="0 0 16.933 16.933" xmlns="http://www.w3.org/2000/svg">
 <defs id="defs43">
  <filter id="filter1178" x="-.047999482" y="-.047999482" width="1.095999" height="1.095999" color-interpolation-filters="sRGB">
   <feGaussianBlur id="feGaussianBlur2" stdDeviation="0.30691668"/>
  </filter>
  <radialGradient id="radialGradient8804" cx="4.6927" cy="4.0029" r="7.5405" gradientTransform="matrix(-2.6959 -.0082963 .0068041 -2.211 17.317 12.892)" gradientUnits="userSpaceOnUse">
   <stop id="stop35" stop-color="#ebcb8b" offset="0"/>
   <stop id="stop37" stop-color="#d08770" offset="1"/>
  </radialGradient>
  <linearGradient id="SVGID_1_" x1="242.97" x2="242.97" y1="219.23779" y2="138.448" gradientTransform="matrix(.09840652 0 0 -.09840652 -13.139222 27.400657)" gradientUnits="userSpaceOnUse">
   <stop id="stop273" style="stop-color:#ebcb8b" offset=".35229248"/>
   <stop id="stop275" style="stop-color:#d08770" offset=".80000001"/>
   <stop id="stop277" style="stop-color:#bf616a" offset="1"/>
  </linearGradient>
  <filter id="filter1142" x="-.024470433" y="-.030112835" width="1.0489409" height="1.0602257" style="color-interpolation-filters:sRGB">
   <feGaussianBlur id="feGaussianBlur1144" stdDeviation="0.12594016"/>
  </filter>
 </defs>
 <g id="g51" stroke-linecap="round" stroke-linejoin="round">
  <rect id="rect45" transform="matrix(.99138 0 0 1 .072989 2.5202e-7)" x=".79375" y="1.0171" width="15.346" height="15.346" rx="3.0526" ry="3.0526" fill="#2e3440" filter="url(#filter1178)" opacity=".2" stroke-width="1.2489" style="mix-blend-mode:normal"/>
  <rect id="rect47" x=".92604" y=".92604" width="15.081" height="15.081" rx="3" ry="3" fill="url(#radialGradient8804)" stroke-width="1.2274"/>
  <rect id="rect49" x=".01215" y=".0060174" width="16.924" height="16.927" fill="none" opacity=".15" stroke-width="1.052"/>
 </g>
 <g id="g390-2" transform="translate(.13520594 -.20959892)" style="fill:#2e3440;filter:url(#filter1142);opacity:.75">
  <path id="path280-9" class="st2" d="m11.708426 6.0759611-4.6939912 7.6363469c0.078726 0.03937 0.1672912 0.06888 0.2656976 0.06888h2.1551029c0.068885 0 0.14761-0.0099 0.1968134-0.03937 0.02952-0.0099 0.049202-0.02953 0.078722-0.03937 0.02952-0.0099 0.068885-0.03937 0.088568-0.06888 0.039366-0.02953 0.068885-0.06889 0.088568-0.108249l4.5463813-7.4100017c0.0492-0.088561 0.07872-0.1968131 0.07872-0.2853784h-2.361754c-0.177132 0-0.344424 0.088561-0.442831 0.2460148z" style="fill:#2e3440;stroke-width:.0984067"/>
  <path id="path295-1" class="st4" d="m14.434286 5.5347267-1.023427-1.5548238c-0.108248-0.1476115-0.265698-0.2361751-0.44283-0.2361751h-2.194465c-0.186972 0-0.354263 0.088561-0.462511 0.2460164l-3.2966182 5.2450678-1.9189272-3.1686906c-0.0885652-0.1574478-0.2755384-0.2656974-0.4625107-0.2656974h-2.4700037c0 0.1082496 0.029522 0.1968131 0.078726 0.2853784l3.4737502 5.6485356 1.0726311 1.751635c0.049203 0.07872 0.1180875 0.147611 0.1968131 0.186972l4.7038324-7.6265046c0.08857-0.1574479 0.275538-0.2656973 0.46251-0.2656973h2.361757c0.0099-0.059051-0.01969-0.1672925-0.07872-0.2460164z" style="fill:#2e3440;stroke-width:.0984067"/>
 </g>
 <g id="g390" transform="translate(.13520589 -.20959847)">
  <path id="path280" class="st2" d="m11.482003 6.1884113-4.5102882 7.4772537c0.078726 0.03937 0.2100112 0.115523 0.3084176 0.115523h2.1551029c0.068885 0 0.14761-0.0099 0.1968134-0.03937 0.02952-0.0099 0.049202-0.02953 0.078722-0.03937 0.02952-0.0099 0.068885-0.03937 0.088568-0.06888 0.039366-0.02953 0.068885-0.06889 0.088568-0.108249l4.5463813-7.4100017c0.0492-0.088561 0.07872-0.2408566 0.07872-0.3294219l-2.436739-0.1174504c-0.176927-0.0085278-0.495862 0.3625046-0.594269 0.5199584z" style="fill:url(#SVGID_1_);stroke-width:.0984067"/>
  <path id="path295" class="st4" d="m14.434286 5.5347267-1.023427-1.5548238c-0.108248-0.1476115-0.265698-0.2361751-0.44283-0.2361751h-2.194465c-0.186972 0-0.354263 0.088561-0.462511 0.2460164l-3.2966182 5.2450678-1.9189272-3.1686906c-0.0885652-0.1574478-0.2755384-0.2656974-0.4625107-0.2656974h-2.4700037c0 0.1082496 0.029522 0.1968131 0.078726 0.2853784l3.4737502 5.6485356 1.0726311 1.751635c0.049203 0.07872 0.1180875 0.147611 0.1968131 0.186972l4.7038324-7.6265046c0.08857-0.1574479 0.275538-0.2656973 0.46251-0.2656973h2.361757c0.0099-0.059051-0.01969-0.1672925-0.07872-0.2460164z" style="fill:#eceff4;stroke-width:.0984067"/>
 </g>
</svg>

<?xml version="1.0" encoding="UTF-8" standalone="no"?>
<svg
   width="64"
   height="64"
   version="1.1"
   viewBox="0 0 16.933 16.933"
   id="svg71"
   xmlns="http://www.w3.org/2000/svg"
   xmlns:svg="http://www.w3.org/2000/svg">
  <defs
     id="defs43">
    <filter
       id="filter1178"
       x="-0.047999482"
       y="-0.047999482"
       width="1.095999"
       height="1.095999"
       color-interpolation-filters="sRGB">
      <feGaussianBlur
         stdDeviation="0.30691668"
         id="feGaussianBlur2" />
    </filter>
    <linearGradient
       id="i"
       x1="456.17"
       x2="480.12"
       y1="748.87"
       y2="643.31"
       gradientTransform="matrix(-.019692 0 0 .019692 18.292 .56467)"
       gradientUnits="userSpaceOnUse">
      <stop
         stop-color="#fff"
         stop-opacity=".8"
         offset="0"
         id="stop5" />
      <stop
         stop-color="#e5eaf2"
         offset="1"
         id="stop7" />
    </linearGradient>
    <linearGradient
       id="l"
       x1="643.16"
       x2="361.14"
       y1="256.97"
       y2="630.52"
       gradientTransform="matrix(.017494 0 0 .017494 .29199 1.2566)"
       gradientUnits="userSpaceOnUse">
      <stop
         stop-color="#eceff4"
         stop-opacity=".5"
         offset="0"
         id="stop10" />
      <stop
         stop-color="#eee"
         stop-opacity="0"
         offset="1"
         id="stop12" />
    </linearGradient>
    <linearGradient
       id="m"
       x1="377.22"
       x2="370.21"
       y1="285.26"
       y2="458.38"
       gradientTransform="matrix(.017494 0 0 .017494 .29199 1.2566)"
       gradientUnits="userSpaceOnUse">
      <stop
         stop-color="#eceff4"
         stop-opacity=".4"
         offset="0"
         id="stop15" />
      <stop
         stop-color="#eee"
         stop-opacity="0"
         offset="1"
         id="stop17" />
    </linearGradient>
    <linearGradient
       id="n"
       x1="191.37"
       x2="130.32"
       y1="439.01"
       y2="580.55"
       gradientTransform="matrix(.017494 0 0 .017494 .29199 1.2566)"
       gradientUnits="userSpaceOnUse">
      <stop
         stop-color="#eceff4"
         stop-opacity=".35"
         offset="0"
         id="stop20" />
      <stop
         stop-color="#eee"
         stop-opacity="0"
         offset="1"
         id="stop22" />
    </linearGradient>
    <linearGradient
       id="o"
       x1="186.97"
       x2="185.21"
       y1="547.14"
       y2="491.07"
       gradientTransform="matrix(.017494 0 0 .017494 .29199 1.2566)"
       gradientUnits="userSpaceOnUse">
      <stop
         stop-color="#eceff4"
         stop-opacity=".4"
         offset="0"
         id="stop25" />
      <stop
         stop-color="#eee"
         stop-opacity="0"
         offset="1"
         id="stop27" />
    </linearGradient>
    <linearGradient
       id="linearGradient7410"
       x1="24.44"
       x2="23.514"
       y1="8.5893"
       y2="10.142"
       gradientTransform="matrix(1.1767 0 0 1.1767 -21.718 -2.4522)"
       gradientUnits="userSpaceOnUse">
      <stop
         stop-color="#eceff4"
         offset="0"
         id="stop30" />
      <stop
         stop-color="#d8dee9"
         offset="1"
         id="stop32" />
    </linearGradient>
    <radialGradient
       id="radialGradient8804"
       cx="4.6927"
       cy="4.0029"
       r="7.5405"
       gradientTransform="matrix(-2.6959 -.0082963 .0068041 -2.211 17.317 12.892)"
       gradientUnits="userSpaceOnUse">
      <stop
         stop-color="#ebcb8b"
         offset="0"
         id="stop35" />
      <stop
         stop-color="#d08770"
         offset="1"
         id="stop37" />
    </radialGradient>
    <filter
       id="filter10080"
       x="-0.06948657"
       y="-0.069183164"
       width="1.1389731"
       height="1.1383663"
       color-interpolation-filters="sRGB">
      <feGaussianBlur
         stdDeviation="1.2776568"
         id="feGaussianBlur40" />
    </filter>
    <linearGradient
       id="SVGID_1_"
       gradientUnits="userSpaceOnUse"
       x1="242.97"
       y1="219.23779"
       x2="242.97"
       y2="138.448"
       gradientTransform="matrix(0.09840652,0,0,-0.09840652,-13.139222,27.400657)">
	
	
	
	
	<stop
   offset="0.35229248"
   style="stop-color:#ebcb8b;stop-opacity:1;"
   id="stop273" />

	<stop
   offset="0.80000001"
   style="stop-color:#d08770;stop-opacity:1;"
   id="stop275" />

	<stop
   offset="1"
   style="stop-color:#bf616a;stop-opacity:1;"
   id="stop277" />

</linearGradient>
    <filter
       style="color-interpolation-filters:sRGB"
       id="filter1142"
       x="-0.024470433"
       y="-0.030112835"
       width="1.0489409"
       height="1.0602257">
      <feGaussianBlur
         stdDeviation="0.12594016"
         id="feGaussianBlur1144" />
    </filter>
  </defs>
  <g
     stroke-linecap="round"
     stroke-linejoin="round"
     id="g51">
    <rect
       transform="matrix(.99138 0 0 1 .072989 2.5202e-7)"
       x=".79375"
       y="1.0171"
       width="15.346"
       height="15.346"
       rx="3.0526"
       ry="3.0526"
       fill="#2e3440"
       filter="url(#filter1178)"
       opacity=".2"
       stroke-width="1.2489"
       style="mix-blend-mode:normal"
       id="rect45" />
    <rect
       x=".92604"
       y=".92604"
       width="15.081"
       height="15.081"
       rx="3"
       ry="3"
       fill="url(#radialGradient8804)"
       stroke-width="1.2274"
       id="rect47" />
    <rect
       x=".01215"
       y=".0060174"
       width="16.924"
       height="16.927"
       fill="none"
       opacity=".15"
       stroke-width="1.052"
       id="rect49" />
  </g>
  <g
     id="g390-2"
     transform="translate(0.13520594,-0.20959892)"
     style="fill:#2e3440;fill-opacity:1;filter:url(#filter1142);opacity:0.75">
    <path
       class="st2"
       d="M 11.708426,6.0759611 7.0144348,13.712308 c 0.078726,0.03937 0.1672912,0.06888 0.2656976,0.06888 h 2.1551029 c 0.068885,0 0.14761,-0.0099 0.1968134,-0.03937 0.02952,-0.0099 0.049202,-0.02953 0.078722,-0.03937 0.02952,-0.0099 0.068885,-0.03937 0.088568,-0.06888 0.039366,-0.02953 0.068885,-0.06889 0.088568,-0.108249 L 14.434288,6.1153173 c 0.0492,-0.088561 0.07872,-0.1968131 0.07872,-0.2853784 h -2.361754 c -0.177132,0 -0.344424,0.088561 -0.442831,0.2460148 z"
       id="path280-9"
       style="overflow:visible;fill:#2e3440;stroke-width:0.0984067;fill-opacity:1" />
    <path
       class="st4"
       d="M 14.434286,5.5347267 13.410859,3.9799029 C 13.302611,3.8322914 13.145161,3.7437278 12.968029,3.7437278 h -2.194465 c -0.186972,0 -0.354263,0.088561 -0.462511,0.2460164 L 7.0144348,9.234812 5.0955076,6.0661214 C 5.0069424,5.9086736 4.8199692,5.800424 4.6329969,5.800424 H 2.1629932 c 0,0.1082496 0.029522,0.1968131 0.078726,0.2853784 l 3.4737502,5.6485356 1.0726311,1.751635 c 0.049203,0.07872 0.1180875,0.147611 0.1968131,0.186972 L 11.688746,6.0464404 c 0.08857,-0.1574479 0.275538,-0.2656973 0.46251,-0.2656973 h 2.361757 c 0.0099,-0.059051 -0.01969,-0.1672925 -0.07872,-0.2460164 z"
       id="path295-1"
       style="overflow:visible;fill:#2e3440;stroke-width:0.0984067;fill-opacity:1" />
  </g>
  <g
     id="g390"
     transform="translate(0.13520589,-0.20959847)">
    <path
       class="st2"
       d="M 11.482003,6.1884113 6.9717148,13.665665 c 0.078726,0.03937 0.2100112,0.115523 0.3084176,0.115523 h 2.1551029 c 0.068885,0 0.14761,-0.0099 0.1968134,-0.03937 0.02952,-0.0099 0.049202,-0.02953 0.078722,-0.03937 0.02952,-0.0099 0.068885,-0.03937 0.088568,-0.06888 0.039366,-0.02953 0.068885,-0.06889 0.088568,-0.108249 L 14.434288,6.1153173 c 0.0492,-0.088561 0.07872,-0.2408566 0.07872,-0.3294219 L 12.076269,5.668445 C 11.899342,5.6599172 11.580407,6.0309496 11.482,6.1884034 Z"
       id="path280"
       style="overflow:visible;fill:url(#SVGID_1_);stroke-width:0.0984067" />
    <path
       class="st4"
       d="M 14.434286,5.5347267 13.410859,3.9799029 C 13.302611,3.8322914 13.145161,3.7437278 12.968029,3.7437278 h -2.194465 c -0.186972,0 -0.354263,0.088561 -0.462511,0.2460164 L 7.0144348,9.234812 5.0955076,6.0661214 C 5.0069424,5.9086736 4.8199692,5.800424 4.6329969,5.800424 H 2.1629932 c 0,0.1082496 0.029522,0.1968131 0.078726,0.2853784 l 3.4737502,5.6485356 1.0726311,1.751635 c 0.049203,0.07872 0.1180875,0.147611 0.1968131,0.186972 L 11.688746,6.0464404 c 0.08857,-0.1574479 0.275538,-0.2656973 0.46251,-0.2656973 h 2.361757 c 0.0099,-0.059051 -0.01969,-0.1672925 -0.07872,-0.2460164 z"
       id="path295"
       style="overflow:visible;fill:#eceff4;fill-opacity:1;stroke-width:0.0984067" />
  </g>
</svg>
